!!!Melodie: Was Gott tut, das ist wohlgetan, es bleibt gerecht
!!!Typ: Lied
**kern	**silbe	**silbe	**silbe	**silbe	**silbe	**silbe	**silbe	**silbe
*clefG2	*lang:DE	*lang:DE	*lang:DE	*lang:DE	*lang:DE	*lang:DE	*lang:DE	*lang:DE
*k[b-]	*	*	*	*	*	*	*	*
*M4/4	*	*	*	*	*	*	*	*
4c	Wir	Wir	Wir	Wir	Wir	Du	Wir	Wir
=	=	=	=	=	=	=	=	=
4f	war#	wis#	war#	trös#	war#	bist	war#	freu#
4g	#ten	#sen	#ten	#ten	#ten	uns	#ten	#en
4a	dein,	dich	dei#	uns,	dein;	zwar	dein,	uns
4b-	o	auf	#ner	dass	du	im	du	schon
=	=	=	=	=	=	=	=	=
4.cc	Got#	dei#	mit	du	hast	Gei#	kommst	ü#
8cc	#tes	#nem	Ge#	die	uns	#ste	ge#	#ber#
4a	Sohn,	Thron	#duld	Schuld	ja	nah;	#wiss,	#dies
4dd	und	und	in	am	das	doch	die	mit
=	=	=	=	=	=	=	=	=
4cc	lie#	nen#	un#	Kreuz	Herz	sollst	Zeit	kind#
4b-	#ben	#nen	#ser'n	hast	schon	du	ist	#li#
8La	dein	uns	Lei#	ab#	hin#	sicht#	bald	#chem
8Jg	|	|	|	|	|	|	|	|
4a	Er#	die	#dens#	#ge#	#ge#	#bar	ver#	Ver#
=	=	=	=	=	=	=	=	=
2g	#schei#	Dei#	#ta#	#tra#	#nom#	kom#	#gan#	#lan#
4f	#nen.	#nen.	#gen;	#gen;	#men.	#men;	#gen;	#gen.
=:|	=	=	=	=	=	=	=	=
4cc	.	Wer	.	so	.	da	.	Was
=	=	=	=	=	=	=	=	=
4dd	.	an	.	kö#	.	willst	.	wird
4dd	.	dich	.	#nen	.	uns	.	ge#
4g	.	glaubt,	.	wir	.	du	.	#sche’n,
4g	.	er#	.	nun	.	bei	.	wenn
=	=	=	=	=	=	=	=	=
4cc	.	#hebt	.	gern	.	dir	.	wir
4cc	.	sein	.	mit	.	auch	.	dich
4f	.	Haupt,	.	dir	.	Ruh’,	.	seh’n,
4a	.	und	.	uns	.	bei	.	Wenn
=	=	=	=	=	=	=	=	=
4g	.	sie#	.	auch	.	dir	.	du
4f	.	#het	.	zum	.	auch	.	uns
(4e	.	dir	.	Kreuz	.	Freu#	.	heim
4e)	.	ent#	.	be#	.	#de	.	wirst
=	=	=	=	=	=	=	=	=
2d	.	#ge#	.	#que#	.	ge#	.	bring#
4c	.	#gen;	.	#men,	.	#ben,	.	#en,
4cc	.	du	.	bis	.	bei	.	wenn
=	=	=	=	=	=	=	=	=
4b-	.	kommst	.	du	.	dir	.	wir
4a	.	uns	.	es	.	ein	.	dir
4g	.	ja	.	weg	.	herr#	.	e#
4a	.	zum	.	wirst	.	#lich'	.	#wig
=	=	=	=	=	=	=	=	=
2g	.	Se#	.	neh#	.	Le#	.	sing#
4f	.	#gen.	.	#men.	.	#ben.	.	#en!
==	==	==	==	==	==	==	==	==
*-	*-	*-	*-	*-	*-	*-	*-	*-
